gemini-icon.svg

<svg height="512" viewBox="0 0 512 512" width="512" xmlns="http://www.w3.org/2000/svg" xmlns:xlink="http://www.w3.org/1999/xlink"><linearGradient id="a" x1="27.275811%" x2="45.459025%" y1="65.900938%" y2="49.990626%"><stop offset="0" stop-color="#08b962"/><stop offset="1" stop-color="#08b962" stop-opacity="0"/></linearGradient><linearGradient id="b" x1="31.821614%" x2="47.731926%" y1="20.442904%" y2="45.444823%"><stop offset="0" stop-color="#f94543"/><stop offset="1" stop-color="#f94543" stop-opacity="0"/></linearGradient><linearGradient id="c" x1="11.365499%" x2="75.006747%" y1="56.809331%" y2="49.990626%"><stop offset="0" stop-color="#fabc12"/><stop offset=".46" stop-color="#fabc12" stop-opacity="0"/></linearGradient><g fill="none" fill-rule="evenodd"><rect fill="#d7d7d7" height="512" rx="104.186996" width="512"/><g fill-rule="nonzero" transform="translate(96 96)"><path d="m284.456989 142.576301c-24.089889-10.255225-45.994025-25.026981-64.529952-43.5178392-25.813635-25.865233-44.229855-58.1712287-53.335093-93.56118004-.82186-3.23354802-3.732934-5.49728176-7.069292-5.49728176-3.336359 0-6.247433 2.26373374-7.069293 5.49728176-9.12453 35.38534904-27.543695 67.68772774-53.349594 93.56118004-18.5377518 18.4886412-40.4414344 33.2600912-64.5299521 43.5178392-9.4257234 4.060312-19.1124667 7.323062-29.03122792 9.831755-3.25453312.799661-5.54258498 3.717958-5.54258498 7.069292 0 3.351335 2.28805186 6.269632 5.54258498 7.069293 9.91876122 2.494191 19.57650232 5.756942 29.03122792 9.817253 24.0898894 10.255226 45.9940256 25.026981 64.5299521 43.51784 25.820579 25.867997 44.241955 58.179262 53.349594 93.575681.799661 3.254533 3.717958 5.542585 7.069293 5.542585 3.351334 0 6.269631-2.288052 7.069292-5.542585 2.494192-9.933262 5.756942-19.591003 9.817254-29.045729 10.254594-24.090233 25.026426-45.994482 43.517839-64.529952 25.870131-25.814732 58.181076-44.230919 93.575681-53.335093 3.233548-.82186 5.497282-3.732934 5.497282-7.069293 0-3.336358-2.263734-6.247432-5.497282-7.069292-9.928469-2.497893-19.641327-5.78562-29.045729-9.831755z" fill="#3186ff"/><path d="m284.456989 142.576301c-24.089889-10.255225-45.994025-25.026981-64.529952-43.5178392-25.813635-25.865233-44.229855-58.1712287-53.335093-93.56118004-.82186-3.23354802-3.732934-5.49728176-7.069292-5.49728176-3.336359 0-6.247433 2.26373374-7.069293 5.49728176-9.12453 35.38534904-27.543695 67.68772774-53.349594 93.56118004-18.5377518 18.4886412-40.4414344 33.2600912-64.5299521 43.5178392-9.4257234 4.060312-19.1124667 7.323062-29.03122792 9.831755-3.25453312.799661-5.54258498 3.717958-5.54258498 7.069292 0 3.351335 2.28805186 6.269632 5.54258498 7.069293 9.91876122 2.494191 19.57650232 5.756942 29.03122792 9.817253 24.0898894 10.255226 45.9940256 25.026981 64.5299521 43.51784 25.820579 25.867997 44.241955 58.179262 53.349594 93.575681.799661 3.254533 3.717958 5.542585 7.069293 5.542585 3.351334 0 6.269631-2.288052 7.069292-5.542585 2.494192-9.933262 5.756942-19.591003 9.817254-29.045729 10.254594-24.090233 25.026426-45.994482 43.517839-64.529952 25.870131-25.814732 58.181076-44.230919 93.575681-53.335093 3.233548-.82186 5.497282-3.732934 5.497282-7.069293 0-3.336358-2.263734-6.247432-5.497282-7.069292-9.928469-2.497893-19.641327-5.78562-29.045729-9.831755z" fill="url(#a)"/><path d="m284.456989 142.576301c-24.089889-10.255225-45.994025-25.026981-64.529952-43.5178392-25.813635-25.865233-44.229855-58.1712287-53.335093-93.56118004-.82186-3.23354802-3.732934-5.49728176-7.069292-5.49728176-3.336359 0-6.247433 2.26373374-7.069293 5.49728176-9.12453 35.38534904-27.543695 67.68772774-53.349594 93.56118004-18.5377518 18.4886412-40.4414344 33.2600912-64.5299521 43.5178392-9.4257234 4.060312-19.1124667 7.323062-29.03122792 9.831755-3.25453312.799661-5.54258498 3.717958-5.54258498 7.069292 0 3.351335 2.28805186 6.269632 5.54258498 7.069293 9.91876122 2.494191 19.57650232 5.756942 29.03122792 9.817253 24.0898894 10.255226 45.9940256 25.026981 64.5299521 43.51784 25.820579 25.867997 44.241955 58.179262 53.349594 93.575681.799661 3.254533 3.717958 5.542585 7.069293 5.542585 3.351334 0 6.269631-2.288052 7.069292-5.542585 2.494192-9.933262 5.756942-19.591003 9.817254-29.045729 10.254594-24.090233 25.026426-45.994482 43.517839-64.529952 25.870131-25.814732 58.181076-44.230919 93.575681-53.335093 3.233548-.82186 5.497282-3.732934 5.497282-7.069293 0-3.336358-2.263734-6.247432-5.497282-7.069292-9.928469-2.497893-19.641327-5.78562-29.045729-9.831755z" fill="url(#b)"/><path d="m284.456989 142.576301c-24.089889-10.255225-45.994025-25.026981-64.529952-43.5178392-25.813635-25.865233-44.229855-58.1712287-53.335093-93.56118004-.82186-3.23354802-3.732934-5.49728176-7.069292-5.49728176-3.336359 0-6.247433 2.26373374-7.069293 5.49728176-9.12453 35.38534904-27.543695 67.68772774-53.349594 93.56118004-18.5377518 18.4886412-40.4414344 33.2600912-64.5299521 43.5178392-9.4257234 4.060312-19.1124667 7.323062-29.03122792 9.831755-3.25453312.799661-5.54258498 3.717958-5.54258498 7.069292 0 3.351335 2.28805186 6.269632 5.54258498 7.069293 9.91876122 2.494191 19.57650232 5.756942 29.03122792 9.817253 24.0898894 10.255226 45.9940256 25.026981 64.5299521 43.51784 25.820579 25.867997 44.241955 58.179262 53.349594 93.575681.799661 3.254533 3.717958 5.542585 7.069293 5.542585 3.351334 0 6.269631-2.288052 7.069292-5.542585 2.494192-9.933262 5.756942-19.591003 9.817254-29.045729 10.254594-24.090233 25.026426-45.994482 43.517839-64.529952 25.870131-25.814732 58.181076-44.230919 93.575681-53.335093 3.233548-.82186 5.497282-3.732934 5.497282-7.069293 0-3.336358-2.263734-6.247432-5.497282-7.069292-9.928469-2.497893-19.641327-5.78562-29.045729-9.831755z" fill="url(#c)"/></g></g></svg>

<?xml version="1.0" encoding="UTF-8"?>
<svg width="512px" height="512px" viewBox="0 0 512 512" version="1.1" xmlns="http://www.w3.org/2000/svg" xmlns:xlink="http://www.w3.org/1999/xlink">
    <title>Group</title>
    <defs>
        <linearGradient x1="27.2758109%" y1="65.9009382%" x2="45.4590245%" y2="49.9906263%" id="linearGradient-1">
            <stop stop-color="#08B962" offset="0%"></stop>
            <stop stop-color="#08B962" stop-opacity="0" offset="100%"></stop>
        </linearGradient>
        <linearGradient x1="31.8216143%" y1="20.4429042%" x2="47.7319262%" y2="45.4448229%" id="linearGradient-2">
            <stop stop-color="#F94543" offset="0%"></stop>
            <stop stop-color="#F94543" stop-opacity="0" offset="100%"></stop>
        </linearGradient>
        <linearGradient x1="11.365499%" y1="56.8093314%" x2="75.0067466%" y2="49.9906263%" id="linearGradient-3">
            <stop stop-color="#FABC12" offset="0%"></stop>
            <stop stop-color="#FABC12" stop-opacity="0" offset="46%"></stop>
        </linearGradient>
    </defs>
    <g id="Page-1" stroke="none" stroke-width="1" fill="none" fill-rule="evenodd">
        <g id="Group">
            <rect id="Rectangle" fill="#D7D7D7" x="0" y="0" width="512" height="512" rx="104.186996"></rect>
            <g id="Gemini" transform="translate(96, 96)" fill-rule="nonzero">
                <path d="M284.456989,142.576301 C260.3671,132.321076 238.462964,117.54932 219.927037,99.0584618 C194.113402,73.1932288 175.697182,40.8872331 166.591944,5.49728176 C165.770084,2.26373374 162.85901,0 159.522652,0 C156.186293,0 153.275219,2.26373374 152.453359,5.49728176 C143.328829,40.8826308 124.909664,73.1850095 99.103765,99.0584618 C80.5660132,117.547103 58.6623306,132.318553 34.5738129,142.576301 C25.1480895,146.636613 15.4613462,149.899363 5.54258498,152.408056 C2.28805186,153.207717 0,156.126014 0,159.477348 C0,162.828683 2.28805186,165.74698 5.54258498,166.546641 C15.4613462,169.040832 25.1190873,172.303583 34.5738129,176.363894 C58.6637023,186.61912 80.5678385,201.390875 99.103765,219.881734 C124.924344,245.749731 143.34572,278.060996 152.453359,313.457415 C153.25302,316.711948 156.171317,319 159.522652,319 C162.873986,319 165.792283,316.711948 166.591944,313.457415 C169.086136,303.524153 172.348886,293.866412 176.409198,284.411686 C186.663792,260.321453 201.435624,238.417204 219.927037,219.881734 C245.797168,194.067002 278.108113,175.650815 313.502718,166.546641 C316.736266,165.724781 319,162.813707 319,159.477348 C319,156.14099 316.736266,153.229916 313.502718,152.408056 C303.574249,149.910163 293.861391,146.622436 284.456989,142.576301 Z" id="Path" fill="#3186FF"></path>
                <path d="M284.456989,142.576301 C260.3671,132.321076 238.462964,117.54932 219.927037,99.0584618 C194.113402,73.1932288 175.697182,40.8872331 166.591944,5.49728176 C165.770084,2.26373374 162.85901,0 159.522652,0 C156.186293,0 153.275219,2.26373374 152.453359,5.49728176 C143.328829,40.8826308 124.909664,73.1850095 99.103765,99.0584618 C80.5660132,117.547103 58.6623306,132.318553 34.5738129,142.576301 C25.1480895,146.636613 15.4613462,149.899363 5.54258498,152.408056 C2.28805186,153.207717 0,156.126014 0,159.477348 C0,162.828683 2.28805186,165.74698 5.54258498,166.546641 C15.4613462,169.040832 25.1190873,172.303583 34.5738129,176.363894 C58.6637023,186.61912 80.5678385,201.390875 99.103765,219.881734 C124.924344,245.749731 143.34572,278.060996 152.453359,313.457415 C153.25302,316.711948 156.171317,319 159.522652,319 C162.873986,319 165.792283,316.711948 166.591944,313.457415 C169.086136,303.524153 172.348886,293.866412 176.409198,284.411686 C186.663792,260.321453 201.435624,238.417204 219.927037,219.881734 C245.797168,194.067002 278.108113,175.650815 313.502718,166.546641 C316.736266,165.724781 319,162.813707 319,159.477348 C319,156.14099 316.736266,153.229916 313.502718,152.408056 C303.574249,149.910163 293.861391,146.622436 284.456989,142.576301 Z" id="Path" fill="url(#linearGradient-1)"></path>
                <path d="M284.456989,142.576301 C260.3671,132.321076 238.462964,117.54932 219.927037,99.0584618 C194.113402,73.1932288 175.697182,40.8872331 166.591944,5.49728176 C165.770084,2.26373374 162.85901,0 159.522652,0 C156.186293,0 153.275219,2.26373374 152.453359,5.49728176 C143.328829,40.8826308 124.909664,73.1850095 99.103765,99.0584618 C80.5660132,117.547103 58.6623306,132.318553 34.5738129,142.576301 C25.1480895,146.636613 15.4613462,149.899363 5.54258498,152.408056 C2.28805186,153.207717 0,156.126014 0,159.477348 C0,162.828683 2.28805186,165.74698 5.54258498,166.546641 C15.4613462,169.040832 25.1190873,172.303583 34.5738129,176.363894 C58.6637023,186.61912 80.5678385,201.390875 99.103765,219.881734 C124.924344,245.749731 143.34572,278.060996 152.453359,313.457415 C153.25302,316.711948 156.171317,319 159.522652,319 C162.873986,319 165.792283,316.711948 166.591944,313.457415 C169.086136,303.524153 172.348886,293.866412 176.409198,284.411686 C186.663792,260.321453 201.435624,238.417204 219.927037,219.881734 C245.797168,194.067002 278.108113,175.650815 313.502718,166.546641 C316.736266,165.724781 319,162.813707 319,159.477348 C319,156.14099 316.736266,153.229916 313.502718,152.408056 C303.574249,149.910163 293.861391,146.622436 284.456989,142.576301 Z" id="Path" fill="url(#linearGradient-2)"></path>
                <path d="M284.456989,142.576301 C260.3671,132.321076 238.462964,117.54932 219.927037,99.0584618 C194.113402,73.1932288 175.697182,40.8872331 166.591944,5.49728176 C165.770084,2.26373374 162.85901,0 159.522652,0 C156.186293,0 153.275219,2.26373374 152.453359,5.49728176 C143.328829,40.8826308 124.909664,73.1850095 99.103765,99.0584618 C80.5660132,117.547103 58.6623306,132.318553 34.5738129,142.576301 C25.1480895,146.636613 15.4613462,149.899363 5.54258498,152.408056 C2.28805186,153.207717 0,156.126014 0,159.477348 C0,162.828683 2.28805186,165.74698 5.54258498,166.546641 C15.4613462,169.040832 25.1190873,172.303583 34.5738129,176.363894 C58.6637023,186.61912 80.5678385,201.390875 99.103765,219.881734 C124.924344,245.749731 143.34572,278.060996 152.453359,313.457415 C153.25302,316.711948 156.171317,319 159.522652,319 C162.873986,319 165.792283,316.711948 166.591944,313.457415 C169.086136,303.524153 172.348886,293.866412 176.409198,284.411686 C186.663792,260.321453 201.435624,238.417204 219.927037,219.881734 C245.797168,194.067002 278.108113,175.650815 313.502718,166.546641 C316.736266,165.724781 319,162.813707 319,159.477348 C319,156.14099 316.736266,153.229916 313.502718,152.408056 C303.574249,149.910163 293.861391,146.622436 284.456989,142.576301 Z" id="Path" fill="url(#linearGradient-3)"></path>
            </g>
        </g>
    </g>
</svg>
